assets/img/phone-icon.svg

<svg width="18" height="17" viewBox="0 0 18 17" fill="none" xmlns="http://www.w3.org/2000/svg">
<path d="M12.5559 10.906L12.1009 11.359C12.1009 11.359 11.0179 12.435 8.06288 9.49698C5.10788 6.55898 6.19088 5.48298 6.19088 5.48298L6.47688 5.19698C7.18388 4.49498 7.25088 3.36698 6.63388 2.54298L5.37388 0.859979C4.60988 -0.160021 3.13488 -0.29502 2.25988 0.57498L0.68988 2.13498C0.25688 2.56698 -0.0331206 3.12498 0.00187944 3.74498C0.0918794 5.33198 0.809879 8.74498 4.81388 12.727C9.06088 16.949 13.0459 17.117 14.6749 16.965C15.1909 16.917 15.6389 16.655 15.9999 16.295L17.4199 14.883C18.3799 13.93 18.1099 12.295 16.8819 11.628L14.9719 10.589C14.1659 10.152 13.1859 10.28 12.5559 10.906Z" fill="#E74F2C"/>
</svg>

<svg xmlns="http://www.w3.org/2000/svg" width="18" height="17" fill="none"><path fill="#E74F2C" d="m12.556 10.906-.455.453s-1.083 1.076-4.038-1.862S6.19 5.483 6.19 5.483l.286-.286c.707-.702.774-1.83.157-2.654L5.374.86C4.61-.16 3.134-.295 2.26.575L.69 2.135c-.433.432-.723.99-.688 1.61.09 1.587.808 5 4.812 8.982 4.247 4.222 8.232 4.39 9.86 4.238.517-.048.965-.31 1.326-.67l1.42-1.412c.96-.953.69-2.588-.538-3.255l-1.91-1.039c-.806-.437-1.786-.309-2.416.317"/></svg>
